X:890
T:Caledonian march
T:Bonaparte crossing the Rhine
P:Not to be confused with Bonaparte crossing the Rhine...
R:March
O:Scotland
B:Fiddler's Fakebook
B:Kerr's First p49
S:Arr. 1 Sessions
S:Arr. 2 Kerr's First
Z:1 Transcription, arrangement, chords:Mike Long
Z:2 Transcription, chords:Mike Long
M:C
L:1/8
K:D
P:Arr. 1
FG|\
"D"A>BAF A2de|f>efa d2dc|"G"B>cdB "D"AFDF|"A"E2F2 G2FG|\
"D"A>BAF A2de|
f>efa d2dc|"G"B>cdB "A"AFEF|"D"D2D>E D2:|\
|:de|\
"D"f>efg a2A2|"G"B>ABc d3d|
"G"B>cdB "D"AFDF|"A"E2F2 G2FG|\
"D"A>BAF A2de|f>efa d2dc|"G"B>cdB "A"AFEF|"D"D2D>E D2:|
P:Arr. Kerr's
F>G|\
"D"A>BA>F A2d>e|f>ef>g f2ed|"G"B>cd>B "D"AFEF|"A"A2A>A A2F>G|\
"D"A>BA>F A2d>e|
f>ef>a gfed|"G"B>cd>B "A"AFEF|"D"D2D>D D2:|\
|:f>g|\
"D"a>gf>g a2A2|"G"d>cd>e "D"f2F2|
"G"G>FG>A B>cd>B|"A"A>FE>E E2F>G|\
"D"A>BA>F A2d>e|f>ef>a gfed|"G"B>cd>B "A"A>FE>F|"D"D2D>D D2:|
